svg/fluentui-system-icons/ic_fluent_mail_edit_24_filled.svg

<svg width="24" height="24" viewBox="0 0 24 24" fill="none" xmlns="http://www.w3.org/2000/svg">
<path d="M22 11.2603V7.608L12.348 12.6644C12.13 12.7785 11.87 12.7785 11.652 12.6644L2 7.608V15.75L2.00514 15.9344C2.10075 17.6435 3.51697 19 5.25 19H11.717C11.9006 18.5781 12.1624 18.1927 12.4903 17.8648L18.3927 11.9624C19.3679 10.9871 20.8037 10.7531 22 11.2603ZM18.75 3H5.25L5.06409 3.00523C3.46432 3.09545 2.17386 4.34271 2.01619 5.92355L12 11.1533L21.9838 5.92355C21.8201 4.28191 20.4347 3 18.75 3ZM19.0999 12.6695L13.1974 18.5719C12.8533 18.916 12.6092 19.3472 12.4911 19.8194L12.0334 21.6501C11.8344 22.4462 12.5556 23.1674 13.3517 22.9683L15.1824 22.5106C15.6545 22.3926 16.0857 22.1485 16.4299 21.8043L22.3323 15.9019C23.2249 15.0093 23.2249 13.5621 22.3323 12.6695C21.4397 11.7768 19.9925 11.7768 19.0999 12.6695Z" fill="#212121"/>
</svg>

<svg xmlns="http://www.w3.org/2000/svg" width="24" height="24"><path d="M22 11.26V7.608l-9.652 5.056a.75.75 0 0 1-.696 0L2 7.608v8.142l.005.184A3.25 3.25 0 0 0 5.25 19h6.467c.184-.422.445-.807.773-1.135l5.903-5.903A3.287 3.287 0 0 1 22 11.26ZM18.75 3H5.25l-.186.005a3.25 3.25 0 0 0-3.048 2.919L12 11.154l9.984-5.23A3.25 3.25 0 0 0 18.75 3Zm.35 9.67-5.903 5.902a2.686 2.686 0 0 0-.706 1.247l-.458 1.831a1.087 1.087 0 0 0 1.319 1.318l1.83-.457a2.685 2.685 0 0 0 1.248-.707l5.902-5.902A2.286 2.286 0 0 0 19.1 12.67Z"/></svg>
